;FLAVOR:Marlin
;TIME:9868
;Filament used: 7.15798m
;Layer height: 0.2
;MINX:123.241
;MINY:81.749
;MINZ:0.2
;MAXX:173.764
;MAXY:132.552
;MAXZ:62.8
;Generated with Cura_SteamEngine 4.6.2
M104 S210
M105
M109 S210
M82 ;absolute extrusion mode
; -- START GCODE --
G21                     ;set units to millimetres
G90                     ;set to absolute positioning
M106 S0                 ;set fan speed to zero (turned off)
G28 X0 Y0               ;move to the X/Y origin (Home)
G28 Z0                  ;move to the Z origin (Home)
G1 Z15.0 F1200          ;move Z to position 15.0 mm
G92 E0                  ;zero the extruded length
G1 E20 F200             ;extrude 20mm of feed stock
G92 E0                  ;zero the extruded length again
G1 F7200                ;set feedrate to 120 mm/s
; -- end of START GCODE --
G92 E0
G92 E0
;LAYER_COUNT:314
;LAYER:0
M107
G0 F3600 X152.08 Y86.619 Z0.2
;TYPE:SKIRT
G1 F900 X157.998 Y88.542 E0.20696
G1 X158.635 Y88.757 E0.22933
G1 X159.099 Y88.956 E0.24612
G1 X159.659 Y89.331 E0.26853
G1 X160.136 Y89.729 E0.2892
G1 X164.718 Y93.849 E0.49414
G1 X165.286 Y94.373 E0.51984
G1 X165.629 Y94.745 E0.53667
G1 X166.008 Y95.356 E0.56059
G1 X166.261 Y95.891 E0.58027
G1 X168.764 Y101.517 E0.78508
G1 X169.058 Y102.202 E0.80987
G1 X169.22 Y102.681 E0.82669
G1 X169.316 Y103.398 E0.85075
G1 X169.327 Y103.939 E0.86875
G1 X169.329 Y110.124 E1.07446
G1 X169.319 Y110.881 E1.09964
G1 X169.272 Y111.384 E1.11644
G1 X169.065 Y112.086 E1.14078
G1 X168.84 Y112.616 E1.15994
G1 X166.342 Y118.226 E1.36419
G1 X166.032 Y118.9 E1.38886
G1 X165.784 Y119.341 E1.40569
G1 X165.321 Y119.888 E1.42953
G1 X164.868 Y120.315 E1.45023
G1 X160.326 Y124.404 E1.6535
G1 X159.75 Y124.907 E1.67893
G1 X159.345 Y125.209 E1.69574
G1 X158.697 Y125.52 E1.71964
G1 X158.192 Y125.696 E1.73743
G1 X152.322 Y127.604 E1.94272
G1 X151.585 Y127.834 E1.9684
G1 X151.092 Y127.945 E1.98521
G1 X150.353 Y127.966 E2.0098
G1 X149.754 Y127.913 E2.0298
G1 X143.657 Y127.272 E2.2337
G1 X142.933 Y127.186 E2.25795
G1 X142.437 Y127.087 E2.27477
G1 X141.772 Y126.814 E2.29868
G1 X141.251 Y126.528 E2.31845
G1 X135.935 Y123.46 E2.52259
G1 X135.285 Y123.073 E2.54775
G1 X134.873 Y122.78 E2.56457
G1 X134.378 Y122.262 E2.5884
G1 X134.035 Y121.811 E2.60725
G1 X130.403 Y116.814 E2.81271
G1 X129.972 Y116.201 E2.83763
G1 X129.714 Y115.766 E2.85446
G1 X129.472 Y115.082 E2.87859
G1 X129.336 Y114.495 E2.89863
G1 X128.065 Y108.519 E3.10184
G1 X127.919 Y107.777 E3.12699
G1 X127.862 Y107.274 E3.14383
G1 X127.912 Y106.586 E3.16677
G1 X128.009 Y106.057 E3.18466
G1 X129.305 Y99.949 E3.39233
G1 X129.467 Y99.235 E3.41668
G1 X129.618 Y98.752 E3.43351
G1 X129.957 Y98.123 E3.45728
G1 X130.28 Y97.657 E3.47614
G1 X133.91 Y92.662 E3.68151
G1 X134.358 Y92.063 E3.70639
G1 X134.692 Y91.684 E3.72319
G1 X135.27 Y91.24 E3.74743
G1 X135.802 Y90.92 E3.76808
G1 X141.098 Y87.862 E3.97148
G1 X141.736 Y87.504 E3.99582
G1 X142.196 Y87.292 E4.01266
G1 X142.905 Y87.12 E4.03693
G1 X143.474 Y87.049 E4.056
G1 X149.558 Y86.409 E4.25947
G1 X150.349 Y86.338 E4.28588
G1 X150.855 Y86.332 E4.30272
G1 X151.567 Y86.463 E4.32679
G1 X152.08 Y86.619 E4.34463
G0 F3600 X152.196 Y86.237
G1 F900 X158.121 Y88.161 E4.55182
G1 X158.763 Y88.378 E4.57436
G1 X159.257 Y88.587 E4.5922
G1 X159.915 Y89.024 E4.61848
G1 X160.392 Y89.422 E4.63914
G1 X164.986 Y93.552 E4.8446
G1 X165.558 Y94.079 E4.87047
G1 X165.923 Y94.472 E4.88831
G1 X166.227 Y94.914 E4.90615
G1 X166.622 Y95.72 E4.93601
G1 X169.129 Y101.354 E5.14111
G1 X169.426 Y102.044 E5.16609
G1 X169.6 Y102.552 E5.18395
G1 X169.696 Y103.079 E5.20177
G1 X169.727 Y103.931 E5.23013
G1 X169.729 Y110.124 E5.43611
G1 X169.719 Y110.887 E5.46149
G1 X169.671 Y111.421 E5.47932
G1 X169.545 Y111.942 E5.49715
G1 X169.208 Y112.773 E5.52697
G1 X166.708 Y118.388 E5.7314
G1 X166.395 Y119.067 E5.75627
G1 X166.134 Y119.536 E5.77412
G1 X165.807 Y119.961 E5.79196
G1 X165.142 Y120.606 E5.82277
G1 X160.593 Y124.701 E6.02634
G1 X160.014 Y125.208 E6.05194
G1 X159.585 Y125.53 E6.06978
G1 X159.113 Y125.785 E6.08763
G1 X158.324 Y126.073 E6.11556
G1 X152.446 Y127.985 E6.32115
G1 X151.704 Y128.216 E6.34699
G1 X151.181 Y128.336 E6.36484
G1 X150.647 Y128.378 E6.38266
G1 X149.719 Y128.311 E6.4136
G1 X143.615 Y127.67 E6.61774
G1 X142.886 Y127.584 E6.64215
G1 X142.359 Y127.481 E6.66001
G1 X141.854 Y127.301 E6.67785
G1 X141.059 Y126.879 E6.70778
G1 X135.735 Y123.807 E6.91222
G1 X135.08 Y123.416 E6.93759
G1 X134.641 Y123.108 E6.95543
G1 X134.253 Y122.738 E6.97326
G1 X133.717 Y122.053 E7.00219
G1 X130.08 Y117.049 E7.20794
G1 X129.644 Y116.431 E7.2331
G1 X129.369 Y115.971 E7.25092
G1 X129.166 Y115.474 E7.26878
G1 X128.946 Y114.586 E7.29921
G1 X127.674 Y108.602 E7.50268
G1 X127.527 Y107.853 E7.52807
G1 X127.463 Y107.321 E7.54589
G1 X127.48 Y106.785 E7.56373
G1 X127.616 Y105.985 E7.59072
G1 X128.913 Y99.866 E7.79876
G1 X129.077 Y99.146 E7.82332
G1 X129.235 Y98.634 E7.84114
G1 X129.467 Y98.15 E7.85899
G1 X129.951 Y97.429 E7.88787
G1 X133.586 Y92.427 E8.09353
G1 X134.038 Y91.824 E8.1186
G1 X134.39 Y91.42 E8.13642
G1 X134.799 Y91.072 E8.15428
G1 X135.595 Y90.577 E8.18546
G1 X140.898 Y87.515 E8.38913
G1 X141.541 Y87.155 E8.41364
G1 X142.027 Y86.928 E8.43148
G1 X142.541 Y86.776 E8.4493
G1 X143.424 Y86.652 E8.47896
G1 X149.516 Y86.012 E8.6827
G1 X150.313 Y85.94 E8.70931
G1 X150.849 Y85.931 E8.72714
G1 X151.381 Y86.003 E8.745
G1 X152.196 Y86.237 E8.7732
;MESH:paraguasV2.stl
G0 F3600 X157.727 Y91.119
G0 X157.331 Y92.34
G0 X162.555 Y97.145
G0 X162.635 Y97.087
;TYPE:WALL-INNER
G1 F900 X165.528 Y103.59 E9.00993
G1 X165.529 Y110.712 E9.24681
G1 X162.635 Y117.213 E9.48349
G1 X157.34 Y121.977 E9.72039
G1 X150.573 Y124.178 E9.95707
G1 X143.488 Y123.433 E10.19402
G1 X137.327 Y119.876 E10.43063
G1 X133.139 Y114.115 E10.66752
G1 X131.661 Y107.15 E10.90434
G1 X133.139 Y100.187 E11.14109
G1 X137.328 Y94.425 E11.37803
G1 X143.489 Y90.868 E11.61464
G1 X150.572 Y90.124 E11.85152
G1 X157.34 Y92.323 E12.08821
G1 X162.635 Y97.087 E12.32511
G0 F3600 X162.965 Y96.846
;TYPE:WALL-OUTER
G1 F900 X165.928 Y103.506 E12.56755
G1 X165.929 Y110.796 E12.81002
G1 X162.965 Y117.454 E13.05242
G1 X157.545 Y122.331 E13.29493
G1 X150.615 Y124.585 E13.5373
G1 X143.363 Y123.822 E13.77984
G1 X137.052 Y120.179 E14.0222
G1 X132.766 Y114.282 E14.26467
G1 X131.252 Y107.15 E14.50717
G1 X132.766 Y100.019 E14.74963
G1 X137.053 Y94.122 E14.99212
G1 X143.364 Y90.479 E15.23449
G1 X150.614 Y89.717 E15.47695
G1 X157.545 Y91.969 E15.71934
G1 X162.965 Y96.846 E15.96184
G0 F3600 X163.046 Y97.028
G0 X162.312 Y97.321
;TYPE:SKIN
G1 F900 X165.138 Y103.674 E16.19311
G1 X165.139 Y110.628 E16.4244
G1 X162.312 Y116.979 E16.65562
G1 X157.141 Y121.631 E16.88696
G1 X150.531 Y123.782 E17.11816
G1 X143.612 Y123.053 E17.34956
G1 X137.595 Y119.58 E17.58063
G1 X133.503 Y113.952 E17.81207
G1 X132.06 Y107.15 E18.04334
G1 X133.503 Y100.35 E18.27454
G1 X137.596 Y94.721 E18.50602
G1 X143.613 Y91.248 E18.73709
G1 X150.53 Y90.52 E18.96843
G1 X157.141 Y92.669 E19.19963
G1 X162.312 Y97.321 E19.43098
G0 F3600 X162.359 Y97.871
G1 F900 X159.725 Y95.237 E19.55487
G1 X159.655 Y95.167
G0 F3600 X156.607 Y92.685
G1 F900 X162.812 Y98.889 E19.84671
G1 X162.882 Y98.959
G0 F3600 X163.265 Y99.908
G1 F900 X155.769 Y92.413 E20.19928
G1 X155.699 Y92.343
G0 F3600 X154.932 Y92.14
G1 F900 X163.718 Y100.927 E20.61257
G1 X163.788 Y100.997
G0 F3600 X164.171 Y101.946
G1 F900 X154.093 Y91.868 E21.08661
G1 X154.023 Y91.798
G0 F3600 X153.255 Y91.595
G1 F900 X164.625 Y102.965 E21.62142
G1 X164.695 Y103.035
G0 F3600 X164.958 Y103.864
G1 F900 X152.417 Y91.323 E22.21131
G1 X152.347 Y91.253
G0 F3600 X151.579 Y91.051
G1 F900 X164.958 Y104.429 E22.84059
G0 F3600 X164.958 Y104.995
G1 F900 X150.741 Y90.778 E23.50931
G0 F3600 X150.139 Y90.743
G1 F900 X164.958 Y105.561 E24.20633
G0 F3600 X164.958 Y106.126
G1 F900 X149.628 Y90.796 E24.92741
G0 F3600 X149.116 Y90.85
G1 F900 X164.958 Y106.692 E25.67257
G0 F3600 X164.958 Y107.258
G1 F900 X148.604 Y90.904 E26.44181
G0 F3600 X148.092 Y90.958
G1 F900 X164.958 Y107.823 E27.23511
G0 F3600 X164.958 Y108.389
G1 F900 X147.58 Y91.012 E28.05249
G0 F3600 X147.069 Y91.066
G1 F900 X164.958 Y108.955 E28.89394
G0 F3600 X164.958 Y109.52
G1 F900 X146.557 Y91.119 E29.75947
G0 F3600 X146.045 Y91.174
G1 F900 X164.958 Y110.086 E30.64905
G0 F3600 X164.939 Y110.633
G1 F900 X145.533 Y91.228 E31.56183
G0 F3600 X145.021 Y91.281
G1 F900 X164.764 Y111.024 E32.49048
G0 F3600 X164.59 Y111.415
G1 F900 X144.509 Y91.335 E33.435
G0 F3600 X143.998 Y91.39
G1 F900 X164.416 Y111.807 E34.39538
G0 F3600 X164.241 Y112.198
G1 F900 X143.541 Y91.498 E35.36904
G0 F3600 X143.182 Y91.705
G1 F900 X164.067 Y112.59 E36.35141
G0 F3600 X163.893 Y112.982
G1 F900 X142.824 Y91.912 E37.34245
G0 F3600 X142.465 Y92.119
G1 F900 X163.719 Y113.373 E38.34218
G0 F3600 X163.545 Y113.764
G1 F900 X142.106 Y92.326 E39.35058
G0 F3600 X141.748 Y92.533
G1 F900 X163.37 Y114.156 E40.36763
G0 F3600 X163.196 Y114.547
G1 F900 X141.388 Y92.739 E41.39342
G0 F3600 X141.03 Y92.947
G1 F900 X163.022 Y114.939 E42.42785
G0 F3600 X162.848 Y115.33
G1 F900 X140.671 Y93.154 E43.47097
G0 F3600 X140.312 Y93.36
G1 F900 X162.674 Y115.722 E44.52281
G0 F3600 X162.5 Y116.114
G1 F900 X139.954 Y93.567 E45.58332
G0 F3600 X139.595 Y93.775
G1 F900 X162.325 Y116.505 E46.65247
G0 F3600 X162.142 Y116.887
G1 F900 X139.236 Y93.981 E47.7299
G0 F3600 X138.877 Y94.188
G1 F900 X161.844 Y117.155 E48.8102
G0 F3600 X161.547 Y117.423
G1 F900 X138.519 Y94.395 E49.89337
G0 F3600 X138.16 Y94.602
G1 F900 X161.249 Y117.691 E50.9794
G0 F3600 X160.951 Y117.959
G1 F900 X137.801 Y94.809 E52.06831
G0 F3600 X137.535 Y95.108
G1 F900 X160.653 Y118.226 E53.15571
G0 F3600 X160.355 Y118.494
G1 F900 X137.296 Y95.436 E54.24031
G0 F3600 X137.058 Y95.763
G1 F900 X160.057 Y118.762 E55.32211
G0 F3600 X159.76 Y119.03
G1 F900 X136.82 Y96.091 E56.40111
G0 F3600 X136.582 Y96.418
G1 F900 X159.462 Y119.298 E57.47732
G0 F3600 X159.164 Y119.566
G1 F900 X136.344 Y96.746 E58.5507
G0 F3600 X136.106 Y97.073
G1 F900 X158.867 Y119.834 E59.62131
G0 F3600 X158.568 Y120.102
G1 F900 X135.867 Y97.401 E60.6891
G0 F3600 X135.63 Y97.729
G1 F900 X158.271 Y120.37 E61.75406
G0 F3600 X157.973 Y120.638
G1 F900 X135.391 Y98.056 E62.81625
G0 F3600 X135.153 Y98.384
G1 F900 X157.675 Y120.906 E63.87561
G0 F3600 X157.377 Y121.174
G1 F900 X134.915 Y98.711 E64.93218
G0 F3600 X134.676 Y99.038
G1 F900 X157.08 Y121.442 E65.98599
G0 F3600 X156.667 Y121.594
G1 F900 X134.438 Y99.366 E67.03156
G0 F3600 X134.201 Y99.694
G1 F900 X156.24 Y121.734 E68.06823
G0 F3600 X155.813 Y121.872
G1 F900 X133.962 Y100.021 E69.09603
G0 F3600 X133.724 Y100.349
G1 F900 X155.387 Y122.011 E70.11497
G0 F3600 X154.96 Y122.15
G1 F900 X133.593 Y100.783 E71.12001
G0 F3600 X133.494 Y101.25
G1 F900 X154.533 Y122.289 E72.10962
G0 F3600 X154.106 Y122.428
G1 F900 X133.395 Y101.717 E73.0838
G0 F3600 X133.296 Y102.184
G1 F900 X153.679 Y122.567 E74.04255
G0 F3600 X153.253 Y122.706
G1 F900 X133.197 Y102.65 E74.98592
G0 F3600 X133.098 Y103.117
G1 F900 X152.826 Y122.844 E75.91385
G0 F3600 X152.399 Y122.983
G1 F900 X132.999 Y103.584 E76.82634
G0 F3600 X132.9 Y104.05
G1 F900 X151.972 Y123.122 E77.72343
G0 F3600 X151.545 Y123.261
G1 F900 X132.801 Y104.517 E78.60509
G0 F3600 X132.702 Y104.984
G1 F900 X151.119 Y123.4 E79.47134
G0 F3600 X150.692 Y123.539
G1 F900 X132.603 Y105.45 E80.32219
G0 F3600 X132.504 Y105.917
G1 F900 X150.147 Y123.559 E81.15204
G0 F3600 X149.514 Y123.493
G1 F900 X132.405 Y106.384 E81.9568
G0 F3600 X132.306 Y106.85
G1 F900 X148.882 Y123.426 E82.73648
G0 F3600 X148.249 Y123.359
G1 F900 X132.298 Y107.408 E83.48677
G0 F3600 X132.45 Y108.125
G1 F900 X147.617 Y123.293 E84.2002
G0 F3600 X146.984 Y123.226
G1 F900 X132.603 Y108.844 E84.87666
G0 F3600 X132.755 Y109.561
G1 F900 X146.352 Y123.159 E85.51625
G0 F3600 X145.72 Y123.093
G1 F900 X132.907 Y110.279 E86.11895
G0 F3600 X133.059 Y110.997
G1 F900 X145.087 Y123.025 E86.68472
G0 F3600 X144.455 Y122.959
G1 F900 X133.211 Y111.715 E87.2136
G0 F3600 X133.363 Y112.433
G1 F900 X143.823 Y122.893 E87.7056
G1 X143.893 Y122.963
G0 F3600 X142.658 Y122.294
G1 F900 X133.515 Y113.151 E88.13566
G0 F3600 X133.667 Y113.868
G1 F900 X141.321 Y121.522 E88.49568
G1 X141.391 Y121.592
G0 F3600 X139.984 Y120.751
G1 F900 X135.162 Y115.928 E88.72252
G1 X135.092 Y115.858
G0 F3600 X136.67 Y118.002
G1 F900 X138.647 Y119.979 E88.81551
G1 X138.717 Y120.049
;MESH:NONMESH
G0 F600 X138.717 Y120.049 Z0.4
G0 F3600 X162.555 Y97.145
G0 X162.748 Y97.005
;TIME_ELAPSED:183.715421
;LAYER:1
M106 S255
;TYPE:WALL-INNER
;MESH:paraguasV2.stl
G1 F1350 X165.665 Y103.561 E89.05418
G1 X165.666 Y110.741 E89.29298
G1 X162.748 Y117.295 E89.5316
G1 X157.41 Y122.099 E89.77045
G1 X150.588 Y124.318 E90.00906
G1 X143.445 Y123.566 E90.24795
G1 X137.233 Y119.98 E90.48651
G1 X133.011 Y114.171 E90.72536
G1 X131.521 Y107.15 E90.96408
G1 X133.011 Y100.131 E91.20274
G1 X137.234 Y94.321 E91.44163
G1 X143.446 Y90.735 E91.6802
G1 X150.587 Y89.984 E91.91902
G1 X157.41 Y92.202 E92.15764
G1 X162.748 Y97.005 E92.39647
G0 F5400 X163.078 Y96.764
;TYPE:WALL-OUTER
G1 F900 X166.065 Y103.477 E92.64085
G1 X166.066 Y110.825 E92.88525
G1 X163.078 Y117.536 E93.12958
G1 X157.615 Y122.453 E93.37404
G1 X150.63 Y124.725 E93.61834
G1 X143.32 Y123.955 E93.86282
G1 X136.958 Y120.283 E94.10714
G1 X132.638 Y114.338 E94.35156
G1 X131.112 Y107.15 E94.59596
G1 X132.638 Y99.963 E94.84033
G1 X136.959 Y94.018 E95.08478
G1 X143.321 Y90.346 E95.32909
G1 X150.629 Y89.577 E95.5735
G1 X157.615 Y91.848 E95.81783
G1 X163.078 Y96.764 E96.06226
G0 F5400 X163.159 Y96.946
G0 X162.425 Y97.239
;TYPE:SKIN
G1 F900 X165.275 Y103.645 E96.29546
G1 X165.276 Y110.657 E96.52868
G1 X162.425 Y117.061 E96.76183
G1 X157.211 Y121.753 E96.99513
G1 X150.546 Y123.922 E97.22825
G1 X143.569 Y123.186 E97.4616
G1 X137.501 Y119.684 E97.69462
G1 X133.375 Y114.008 E97.92801
G1 X131.92 Y107.15 E98.16119
G1 X133.375 Y100.294 E98.3943
G1 X137.502 Y94.617 E98.62773
G1 X143.57 Y91.115 E98.86076
G1 X150.545 Y90.38 E99.09403
G1 X157.211 Y92.548 E99.32717
G1 X162.425 Y97.239 E99.56045
G0 F5400 X162.552 Y116.33
G1 F900 X158.827 Y120.055 E99.73566
G1 X158.757 Y120.125
G0 F5400 X156.532 Y121.785
G1 F900 X163.006 Y115.31 E100.0402
G1 X163.076 Y115.24
G0 F5400 X163.46 Y114.291
G1 F900 X155.693 Y122.057 E100.40551
G1 X155.623 Y122.127
G0 F5400 X154.854 Y122.33
G1 F900 X163.913 Y113.272 E100.8316
G1 X163.983 Y113.202
G0 F5400 X164.367 Y112.252
G1 F900 X154.016 Y122.603 E101.31848
G1 X153.946 Y122.673
G0 F5400 X153.177 Y122.876
G1 F900 X164.821 Y111.232 E101.86618
G1 X164.891 Y111.162
G0 F5400 X165.094 Y110.394
G1 F900 X152.339 Y123.149 E102.46613
G1 X152.269 Y123.219
G0 F5400 X151.5 Y123.422
G1 F900 X165.094 Y109.828 E103.10555
G0 F5400 X165.094 Y109.262
G1 F900 X150.661 Y123.695 E103.78444
G0 F5400 X150.097 Y123.694
G1 F900 X165.094 Y108.697 E104.48985
G0 F5400 X165.094 Y108.131
G1 F900 X149.585 Y123.64 E105.21934
G0 F5400 X149.073 Y123.586
G1 F900 X165.094 Y107.565 E105.97292
G0 F5400 X165.094 Y107
G1 F900 X148.562 Y123.532 E106.75054
G0 F5400 X148.05 Y123.478
G1 F900 X165.094 Y106.434 E107.55224
G0 F5400 X165.094 Y105.868
G1 F900 X147.539 Y123.424 E108.37799
G0 F5400 X147.027 Y123.37
G1 F900 X165.094 Y105.303 E109.22781
G0 F5400 X165.094 Y104.737
G1 F900 X146.516 Y123.315 E110.10166
G0 F5400 X146.004 Y123.262
G1 F900 X165.094 Y104.171 E110.99962
G0 F5400 X165.07 Y103.63
G1 F900 X145.492 Y123.208 E111.92051
G0 F5400 X144.98 Y123.153
G1 F900 X164.895 Y103.239 E112.85723
G0 F5400 X164.721 Y102.847
G1 F900 X144.468 Y123.1 E113.80986
G0 F5400 X143.957 Y123.045
G1 F900 X164.547 Y102.455 E114.77835
G0 F5400 X164.373 Y102.064
G1 F900 X143.499 Y122.938 E115.7602
G0 F5400 X143.141 Y122.731
G1 F900 X164.199 Y101.672 E116.75073
G0 F5400 X164.025 Y101.281
G1 F900 X142.781 Y122.524 E117.74996
G0 F5400 X142.423 Y122.317
G1 F900 X163.85 Y100.889 E118.75784
G0 F5400 X163.676 Y100.498
G1 F900 X142.064 Y122.11 E119.77441
G0 F5400 X141.705 Y121.903
G1 F900 X163.502 Y100.106 E120.79967
G0 F5400 X163.328 Y99.715
G1 F900 X141.347 Y121.696 E121.83359
G0 F5400 X140.988 Y121.489
G1 F900 X163.154 Y99.323 E122.87621
G0 F5400 X162.98 Y98.932
G1 F900 X140.63 Y121.282 E123.92749
G0 F5400 X140.27 Y121.075
