;FLAVOR:Marlin
;TIME:2107
;Filament used: 1.23392m
;Layer height: 0.2
;MINX:108.915
;MINY:91.418
;MINZ:0.2
;MAXX:162.081
;MAXY:118.582
;MAXZ:13
;Generated with Cura_SteamEngine 4.6.2
M104 S210
M105
M109 S210
M82 ;absolute extrusion mode
; -- START GCODE --
G21                     ;set units to millimetres
G90                     ;set to absolute positioning
M106 S0                 ;set fan speed to zero (turned off)
G28 X0 Y0               ;move to the X/Y origin (Home)
G28 Z0                  ;move to the Z origin (Home)
G1 Z15.0 F1200          ;move Z to position 15.0 mm
G92 E0                  ;zero the extruded length
G1 E20 F200             ;extrude 20mm of feed stock
G92 E0                  ;zero the extruded length again
G1 F7200                ;set feedrate to 120 mm/s
; -- end of START GCODE --
G92 E0
G92 E0
;LAYER_COUNT:65
;LAYER:0
M107
G0 F3600 X149.812 Y91.878 Z0.2
;TYPE:SKIRT
G1 F900 X150.623 Y91.985 E0.02721
G1 X151.439 Y92.145 E0.05486
G1 X152.257 Y92.359 E0.08299
G1 X153.042 Y92.619 E0.11049
G1 X153.809 Y92.929 E0.13801
G1 X154.539 Y93.276 E0.16489
G1 X155.298 Y93.701 E0.19382
G1 X155.945 Y94.115 E0.21937
G1 X156.651 Y94.635 E0.24853
G1 X157.273 Y95.153 E0.27546
G1 X157.876 Y95.726 E0.30312
G1 X158.411 Y96.301 E0.32925
G1 X158.961 Y96.972 E0.3581
G1 X159.457 Y97.663 E0.38639
G1 X159.844 Y98.276 E0.4105
G1 X160.284 Y99.084 E0.4411
G1 X160.602 Y99.764 E0.46607
G1 X160.923 Y100.58 E0.49524
G1 X161.164 Y101.325 E0.52128
G1 X161.387 Y102.206 E0.55151
G1 X161.536 Y103.016 E0.5789
G1 X161.629 Y103.763 E0.60394
G1 X161.682 Y104.682 E0.63455
G1 X161.681 Y105.416 E0.65897
G1 X161.617 Y106.358 E0.69037
G1 X161.532 Y107.027 E0.7128
G1 X161.353 Y107.952 E0.74414
G1 X161.143 Y108.755 E0.77174
G1 X160.894 Y109.507 E0.79809
G1 X160.576 Y110.299 E0.82648
G1 X160.222 Y111.043 E0.85388
G1 X159.804 Y111.791 E0.88238
G1 X159.397 Y112.427 E0.90749
G1 X158.861 Y113.157 E0.93761
G1 X158.348 Y113.77 E0.9642
G1 X157.807 Y114.342 E0.99039
G1 X157.173 Y114.933 E1.01921
G1 X156.544 Y115.45 E1.0463
G1 X155.833 Y115.961 E1.07542
G1 X155.156 Y116.384 E1.10197
G1 X154.417 Y116.785 E1.12993
G1 X153.717 Y117.111 E1.15562
G1 X152.912 Y117.428 E1.18439
G1 X152.087 Y117.69 E1.21318
G1 X151.32 Y117.882 E1.23948
G1 X150.481 Y118.038 E1.26786
G1 X149.679 Y118.134 E1.29473
G1 X148.849 Y118.183 E1.32238
G1 X147.988 Y118.177 E1.35102
G1 X147.188 Y118.122 E1.37769
G1 X146.377 Y118.015 E1.4049
G1 X143.525 Y117.476 E1.50144
G1 X140.818 Y117.039 E1.59264
G1 X138.11 Y116.68 E1.68349
G1 X135.378 Y116.397 E1.77485
G1 X132.661 Y116.191 E1.86547
G1 X129.88 Y116.062 E1.95807
G1 X127.196 Y116.011 E2.04735
G1 X124.442 Y116.038 E2.13896
G1 X121.843 Y116.15 E2.22548
G1 X120.767 Y116.185 E2.26129
G1 X120.045 Y116.179 E2.2853
G1 X119.456 Y116.139 E2.30494
G1 X118.868 Y116.069 E2.32463
G1 X118.36 Y115.981 E2.34178
G1 X117.725 Y115.839 E2.36342
G1 X117.153 Y115.675 E2.38321
G1 X116.603 Y115.488 E2.40254
G1 X116.022 Y115.252 E2.42339
G1 X115.539 Y115.028 E2.4411
G1 X115.051 Y114.771 E2.45945
G1 X114.52 Y114.455 E2.48
G1 X114.013 Y114.115 E2.5003
G1 X113.554 Y113.771 E2.51938
G1 X113.134 Y113.421 E2.53756
G1 X112.701 Y113.023 E2.55712
G1 X112.27 Y112.578 E2.57773
G1 X111.906 Y112.163 E2.59609
G1 X111.546 Y111.704 E2.61549
G1 X111.226 Y111.254 E2.63386
G1 X110.892 Y110.727 E2.65461
G1 X110.619 Y110.244 E2.67306
G1 X110.378 Y109.76 E2.69104
G1 X110.124 Y109.183 E2.71201
G1 X109.938 Y108.683 E2.72976
G1 X109.75 Y108.093 E2.75035
G1 X109.6 Y107.51 E2.77037
G1 X109.482 Y106.941 E2.7897
G1 X109.402 Y106.393 E2.80812
G1 X109.341 Y105.776 E2.82874
G1 X109.315 Y105.177 E2.84868
G1 X109.319 Y104.594 E2.86808
G1 X109.353 Y104.06 E2.88587
G1 X109.423 Y103.424 E2.90715
G1 X109.509 Y102.913 E2.92439
G1 X109.648 Y102.279 E2.94598
G1 X109.803 Y101.726 E2.96508
G1 X109.986 Y101.174 E2.98442
G1 X110.193 Y100.654 E3.00304
G1 X110.453 Y100.078 E3.02405
G1 X110.738 Y99.537 E3.04439
G1 X111.023 Y99.056 E3.06299
G1 X111.311 Y98.621 E3.08034
G1 X111.675 Y98.125 E3.1008
G1 X112.038 Y97.683 E3.11983
G1 X112.444 Y97.238 E3.13986
G1 X112.811 Y96.872 E3.1571
G1 X113.215 Y96.51 E3.17514
G1 X113.799 Y96.041 E3.20005
G1 X114.274 Y95.706 E3.21939
G1 X114.791 Y95.379 E3.23973
G1 X115.279 Y95.105 E3.25835
G1 X115.82 Y94.838 E3.27841
G1 X116.33 Y94.62 E3.29686
G1 X116.922 Y94.401 E3.31785
G1 X117.468 Y94.231 E3.33687
G1 X118.039 Y94.086 E3.35647
G1 X118.595 Y93.976 E3.37532
G1 X119.172 Y93.891 E3.39472
G1 X119.753 Y93.838 E3.41412
G1 X120.356 Y93.814 E3.43419
G1 X120.889 Y93.819 E3.45192
G1 X122.756 Y93.91 E3.51409
G1 X125.522 Y93.982 E3.60612
G1 X128.242 Y93.977 E3.69659
G1 X130.993 Y93.894 E3.78813
G1 X133.742 Y93.734 E3.87972
G1 X136.446 Y93.499 E3.96999
G1 X139.194 Y93.181 E4.062
G1 X141.875 Y92.795 E4.15209
G1 X144.598 Y92.323 E4.24401
G1 X145.542 Y92.135 E4.27602
G1 X146.524 Y91.961 E4.30919
G1 X147.321 Y91.866 E4.33589
G1 X148.155 Y91.817 E4.36368
G1 X149.013 Y91.823 E4.39221
G1 X149.812 Y91.878 E4.41885
G0 F3600 X149.843 Y91.479
G1 F900 X150.678 Y91.588 E4.44686
G1 X151.519 Y91.753 E4.47536
G1 X152.361 Y91.973 E4.50431
G1 X153.17 Y92.24 E4.53264
G1 X153.962 Y92.559 E4.56104
G1 X154.713 Y92.917 E4.58871
G1 X155.496 Y93.353 E4.61852
G1 X156.163 Y93.78 E4.64486
G1 X156.891 Y94.314 E4.67489
G1 X157.531 Y94.848 E4.70261
G1 X158.153 Y95.438 E4.73113
G1 X158.706 Y96.031 E4.7581
G1 X159.272 Y96.721 E4.78778
G1 X159.784 Y97.432 E4.81692
G1 X160.184 Y98.065 E4.84183
G1 X160.636 Y98.895 E4.87326
G1 X160.966 Y99.597 E4.89906
G1 X161.297 Y100.436 E4.92906
G1 X161.546 Y101.204 E4.95591
G1 X161.775 Y102.111 E4.98702
G1 X161.93 Y102.947 E5.0153
G1 X162.026 Y103.717 E5.04111
G1 X162.081 Y104.662 E5.0726
G1 X162.081 Y105.419 E5.09777
G1 X162.016 Y106.388 E5.13008
G1 X161.928 Y107.081 E5.15331
G1 X161.745 Y108.03 E5.18546
G1 X161.529 Y108.86 E5.21398
G1 X161.272 Y109.636 E5.24117
G1 X160.947 Y110.45 E5.27032
G1 X160.581 Y111.218 E5.29862
G1 X160.152 Y111.989 E5.32796
G1 X159.732 Y112.646 E5.3539
G1 X159.182 Y113.396 E5.38483
G1 X158.653 Y114.029 E5.41227
G1 X158.095 Y114.619 E5.43928
G1 X157.444 Y115.228 E5.46893
G1 X156.795 Y115.761 E5.49686
G1 X156.064 Y116.287 E5.52682
G1 X155.366 Y116.724 E5.55421
G1 X154.606 Y117.138 E5.58299
G1 X153.883 Y117.475 E5.60952
G1 X153.056 Y117.801 E5.63909
G1 X152.205 Y118.072 E5.66879
G1 X151.414 Y118.271 E5.69592
G1 X150.551 Y118.432 E5.72512
G1 X149.723 Y118.532 E5.75286
G1 X148.87 Y118.582 E5.78128
G1 X147.981 Y118.577 E5.81085
G1 X147.157 Y118.521 E5.83832
G1 X146.322 Y118.412 E5.86633
G1 X143.458 Y117.87 E5.96327
G1 X140.769 Y117.437 E6.05386
G1 X138.057 Y117.077 E6.14485
G1 X135.34 Y116.795 E6.23571
G1 X132.613 Y116.589 E6.32667
G1 X129.889 Y116.462 E6.41737
G1 X127.192 Y116.411 E6.50708
G1 X124.465 Y116.437 E6.59779
G1 X121.861 Y116.55 E6.68448
G1 X120.78 Y116.585 E6.72045
G1 X120.04 Y116.579 E6.74507
G1 X119.408 Y116.536 E6.76613
G1 X118.82 Y116.466 E6.78583
G1 X118.287 Y116.374 E6.80382
G1 X117.637 Y116.229 E6.82597
G1 X117.024 Y116.053 E6.84718
G1 X116.474 Y115.866 E6.8665
G1 X115.999 Y115.678 E6.88349
G1 X115.37 Y115.391 E6.90649
G1 X114.846 Y115.115 E6.92619
G1 X114.315 Y114.799 E6.94674
G1 X113.773 Y114.435 E6.96846
G1 X113.314 Y114.091 E6.98753
G1 X112.864 Y113.715 E7.00704
G1 X112.431 Y113.317 E7.0266
G1 X112.079 Y112.961 E7.04325
G1 X111.606 Y112.427 E7.06698
G1 X111.22 Y111.936 E7.08775
G1 X110.9 Y111.486 E7.10612
G1 X110.544 Y110.923 E7.12827
G1 X110.271 Y110.44 E7.14672
G1 X110.018 Y109.934 E7.16554
G1 X109.758 Y109.342 E7.18704
G1 X109.557 Y108.804 E7.20615
G1 X109.369 Y108.214 E7.22674
G1 X109.208 Y107.591 E7.24814
G1 X109.09 Y107.022 E7.26747
G1 X109.003 Y106.432 E7.28731
G1 X108.942 Y105.815 E7.30793
G1 X108.915 Y105.174 E7.32927
G1 X108.919 Y104.591 E7.34866
G1 X108.954 Y104.029 E7.36739
G1 X109.026 Y103.379 E7.38914
G1 X109.115 Y102.841 E7.40728
G1 X109.257 Y102.192 E7.42937
G1 X109.423 Y101.6 E7.44982
G1 X109.606 Y101.048 E7.46916
G1 X109.823 Y100.5 E7.48877
G1 X110.09 Y99.912 E7.51025
G1 X110.394 Y99.333 E7.532
G1 X110.679 Y98.852 E7.55059
G1 X110.989 Y98.384 E7.56926
G1 X111.353 Y97.888 E7.58973
G1 X111.743 Y97.414 E7.61014
G1 X112.149 Y96.969 E7.63018
G1 X112.532 Y96.586 E7.64819
G1 X112.949 Y96.211 E7.66684
G1 X113.551 Y95.727 E7.69254
G1 X114.061 Y95.367 E7.7133
G1 X114.578 Y95.04 E7.73365
G1 X115.102 Y94.747 E7.75361
G1 X115.643 Y94.48 E7.77368
G1 X116.191 Y94.245 E7.79351
G1 X116.783 Y94.026 E7.8145
G1 X117.37 Y93.844 E7.83495
G1 X117.941 Y93.699 E7.85454
G1 X118.536 Y93.58 E7.87472
G1 X119.113 Y93.495 E7.89412
G1 X119.737 Y93.438 E7.91496
G1 X120.34 Y93.414 E7.93503
G1 X120.908 Y93.419 E7.95392
G1 X122.785 Y93.51 E8.01643
G1 X125.531 Y93.582 E8.10779
G1 X128.264 Y93.577 E8.19869
G1 X130.958 Y93.496 E8.28833
G1 X133.718 Y93.335 E8.38029
G1 X136.401 Y93.101 E8.46986
G1 X139.128 Y92.786 E8.56117
G1 X141.815 Y92.399 E8.65146
G1 X144.498 Y91.934 E8.74203
G1 X145.464 Y91.742 E8.77478
G1 X146.455 Y91.567 E8.80826
G1 X147.277 Y91.468 E8.83579
G1 X148.134 Y91.418 E8.86435
G1 X149.019 Y91.423 E8.89378
G1 X149.843 Y91.479 E8.92125
;MESH:paraguasV1.stl
G0 F3600 X124.085 Y97.115
G0 X123.503 Y98.259
G0 X122.025 Y97.861
G0 X122.045 Y97.764
;TYPE:WALL-INNER
G1 F900 X122.785 Y97.962 E8.94673
G1 X123.511 Y98.241 E8.9726
G1 X124.198 Y98.591 E8.99824
G1 X124.848 Y99.014 E9.02404
G1 X125.449 Y99.5 E9.04974
G1 X125.97 Y100.02 E9.07423
G1 X126.468 Y100.628 E9.10037
G1 X126.882 Y101.259 E9.12547
G1 X127.243 Y101.956 E9.15157
G1 X127.521 Y102.673 E9.17715
G1 X127.728 Y103.428 E9.20319
G1 X127.853 Y104.183 E9.22864
G1 X127.896 Y104.954 E9.25433
G1 X127.862 Y105.742 E9.28056
G1 X127.746 Y106.498 E9.306
G1 X127.549 Y107.249 E9.33182
G1 X127.277 Y107.969 E9.35742
G1 X126.926 Y108.666 E9.38338
G1 X126.508 Y109.319 E9.40916
G1 X126.016 Y109.931 E9.43528
G1 X125.718 Y110.246 E9.4497
G1 X125.154 Y110.752 E9.47491
G1 X124.525 Y111.208 E9.50075
G1 X123.863 Y111.591 E9.52618
G1 X123.155 Y111.907 E9.55197
G1 X122.415 Y112.147 E9.57784
G1 X121.658 Y112.308 E9.60359
G1 X120.885 Y112.389 E9.62944
G1 X120.115 Y112.389 E9.65505
G1 X119.342 Y112.308 E9.6809
G1 X118.585 Y112.147 E9.70664
G1 X117.845 Y111.907 E9.73251
G1 X117.137 Y111.591 E9.7583
G1 X116.475 Y111.208 E9.78374
G1 X115.846 Y110.752 E9.80958
G1 X115.26 Y110.225 E9.83579
G1 X114.777 Y109.689 E9.85979
G1 X114.32 Y109.066 E9.88549
G1 X113.921 Y108.384 E9.91177
G1 X113.61 Y107.697 E9.93685
G1 X113.365 Y106.952 E9.96293
G1 X113.201 Y106.202 E9.98847
G1 X113.115 Y105.421 E10.0146
G1 X113.109 Y104.651 E10.04021
G1 X113.186 Y103.887 E10.06575
G1 X113.343 Y103.123 E10.09169
G1 X113.58 Y102.381 E10.1176
G1 X113.888 Y101.683 E10.14298
G1 X114.275 Y101.002 E10.16903
G1 X114.729 Y100.371 E10.19488
G1 X115.249 Y99.786 E10.22092
G1 X115.568 Y99.485 E10.2355
G1 X116.153 Y99.013 E10.2605
G1 X116.802 Y98.591 E10.28625
G1 X117.489 Y98.241 E10.3119
G1 X118.215 Y97.962 E10.33776
G1 X118.955 Y97.764 E10.36324
G1 X119.732 Y97.641 E10.38941
G1 X120.5 Y97.601 E10.41499
G1 X121.268 Y97.641 E10.44056
G1 X122.045 Y97.764 E10.46673
G0 F3600 X122.025 Y97.861
G0 X117.529 Y98.332
G0 X117.323 Y97.877
;TYPE:WALL-OUTER
G1 F900 X118.094 Y97.581 E10.4942
G1 X118.874 Y97.372 E10.52106
G1 X119.686 Y97.243 E10.5484
G1 X120.5 Y97.201 E10.57551
G1 X121.314 Y97.243 E10.60262
G1 X122.126 Y97.372 E10.62997
G1 X122.906 Y97.581 E10.65683
G1 X123.677 Y97.877 E10.68429
G1 X124.397 Y98.244 E10.71117
G1 X125.088 Y98.693 E10.73858
G1 X125.717 Y99.202 E10.76549
G1 X126.265 Y99.749 E10.79125
G1 X126.787 Y100.386 E10.81864
G1 X127.23 Y101.061 E10.84549
G1 X127.609 Y101.794 E10.87294
G1 X127.902 Y102.548 E10.89984
G1 X128.12 Y103.343 E10.92726
G1 X128.25 Y104.133 E10.95389
G1 X128.297 Y104.959 E10.98141
G1 X128.261 Y105.773 E11.00851
G1 X128.137 Y106.586 E11.03586
G1 X127.932 Y107.366 E11.06268
G1 X127.643 Y108.131 E11.08988
G1 X127.272 Y108.868 E11.11733
G1 X126.836 Y109.549 E11.14422
G1 X126.319 Y110.193 E11.17169
G1 X125.993 Y110.537 E11.18745
G1 X125.405 Y111.065 E11.21374
G1 X124.748 Y111.541 E11.24072
G1 X124.044 Y111.948 E11.26777
G1 X123.293 Y112.283 E11.29512
G1 X122.525 Y112.532 E11.32197
G1 X121.716 Y112.704 E11.34948
G1 X120.908 Y112.789 E11.3765
G1 X120.092 Y112.789 E11.40364
G1 X119.284 Y112.704 E11.43067
G1 X118.475 Y112.532 E11.45817
G1 X117.707 Y112.283 E11.48503
G1 X116.956 Y111.948 E11.51238
G1 X116.252 Y111.541 E11.53942
G1 X115.595 Y111.065 E11.56641
G1 X114.977 Y110.508 E11.59408
G1 X114.466 Y109.942 E11.61944
G1 X113.987 Y109.288 E11.6464
G1 X113.566 Y108.569 E11.67412
G1 X113.236 Y107.839 E11.70076
G1 X112.978 Y107.055 E11.72821
G1 X112.805 Y106.266 E11.75508
G1 X112.715 Y105.448 E11.78245
G1 X112.709 Y104.633 E11.80956
G1 X112.79 Y103.824 E11.8366
G1 X112.955 Y103.024 E11.86377
G1 X113.205 Y102.241 E11.89111
G1 X113.532 Y101.498 E11.91811
G1 X113.938 Y100.785 E11.9454
G1 X114.414 Y100.123 E11.97251
G1 X114.958 Y99.511 E11.99975
G1 X115.305 Y99.184 E12.01561
G1 X115.918 Y98.689 E12.04181
G1 X116.603 Y98.244 E12.06898
G1 X117.323 Y97.877 E12.09586
G0 F3600 X117.509 Y97.806
G0 X117.643 Y98.599
;TYPE:SKIN
G1 F900 X118.333 Y98.334 E12.12044
G1 X119.032 Y98.147 E12.14451
G1 X119.775 Y98.029 E12.16953
G1 X120.5 Y97.993 E12.19368
G1 X121.225 Y98.029 E12.21782
G1 X121.968 Y98.147 E12.24284
G1 X122.667 Y98.334 E12.26691
G1 X123.357 Y98.599 E12.29149
G1 X123.997 Y98.926 E12.3154
G1 X124.617 Y99.329 E12.33999
G1 X125.194 Y99.796 E12.36468
G1 X125.678 Y100.279 E12.38742
G1 X126.154 Y100.861 E12.41243
G1 X126.542 Y101.452 E12.43594
G1 X126.892 Y102.127 E12.46123
G1 X127.148 Y102.788 E12.48481
G1 X127.348 Y103.517 E12.50995
G1 X127.463 Y104.211 E12.53335
G1 X127.506 Y104.959 E12.55827
G1 X127.472 Y105.703 E12.58304
G1 X127.362 Y106.425 E12.60733
G1 X127.179 Y107.127 E12.63146
G1 X126.922 Y107.806 E12.65561
G1 X126.58 Y108.484 E12.68086
G1 X126.193 Y109.089 E12.70475
G1 X125.724 Y109.673 E12.72966
G1 X125.447 Y109.965 E12.74305
G1 X124.909 Y110.447 E12.76707
G1 X124.305 Y110.885 E12.79189
G1 X123.69 Y111.241 E12.81552
G1 X123.018 Y111.541 E12.84
G1 X122.317 Y111.769 E12.86452
G1 X121.593 Y111.922 E12.88913
G1 X120.863 Y111.999 E12.91355
G1 X120.137 Y111.999 E12.93769
G1 X119.407 Y111.922 E12.96211
G1 X118.683 Y111.769 E12.98672
G1 X117.982 Y111.541 E13.01124
G1 X117.31 Y111.241 E13.03571
G1 X116.69 Y110.882 E13.05954
G1 X116.095 Y110.452 E13.08396
G1 X115.536 Y109.949 E13.10897
G1 X115.072 Y109.434 E13.13203
G1 X114.652 Y108.861 E13.15566
G1 X114.262 Y108.194 E13.18135
G1 X113.976 Y107.562 E13.20443
G1 X113.742 Y106.849 E13.22939
G1 X113.587 Y106.141 E13.25349
G1 X113.505 Y105.394 E13.27849
G1 X113.499 Y104.668 E13.30263
G1 X113.572 Y103.946 E13.32677
G1 X113.719 Y103.228 E13.35115
G1 X113.946 Y102.518 E13.37594
G1 X114.239 Y101.856 E13.40002
G1 X114.605 Y101.209 E13.42474
G1 X115.034 Y100.614 E13.44914
G1 X115.532 Y100.053 E13.47409
G1 X115.813 Y99.789 E13.48691
G1 X116.384 Y99.328 E13.51132
G1 X117.003 Y98.926 E13.53587
G1 X117.643 Y98.599 E13.55977
G0 F3600 X126.294 Y101.404
G1 F900 X124.097 Y99.207 E13.66311
G1 X124.027 Y99.137
G0 F3600 X122.968 Y98.644
G1 F900 X126.853 Y102.529 E13.84585
G1 X126.923 Y102.599
G0 F3600 X127.116 Y103.357
G1 F900 X122.137 Y98.378 E14.08005
G0 F3600 X121.438 Y98.245
G1 F900 X127.255 Y104.062 E14.35366
G0 F3600 X127.308 Y104.681
G1 F900 X120.816 Y98.189 E14.65903
G0 F3600 X120.247 Y98.186
G1 F900 X127.312 Y105.25 E14.99132
G0 F3600 X127.278 Y105.782
G1 F900 X119.716 Y98.22 E15.34701
G0 F3600 X119.228 Y98.298
G1 F900 X127.202 Y106.272 E15.72209
G0 F3600 X127.096 Y106.731
G1 F900 X118.768 Y98.403 E16.11381
G0 F3600 X118.327 Y98.528
G1 F900 X126.969 Y107.17 E16.5203
G0 F3600 X126.814 Y107.581
G1 F900 X117.919 Y98.686 E16.9387
G0 F3600 X117.528 Y98.86
G1 F900 X126.637 Y107.969 E17.36715
G0 F3600 X126.446 Y108.345
G1 F900 X117.154 Y99.052 E17.80425
G0 F3600 X116.805 Y99.269
G1 F900 X126.231 Y108.695 E18.24762
G0 F3600 X126.005 Y109.035
G1 F900 X116.465 Y99.494 E18.69637
G0 F3600 X116.152 Y99.747
G1 F900 X125.753 Y109.348 E19.14797
G0 F3600 X125.493 Y109.653
G1 F900 X115.845 Y100.006 E19.60176
G0 F3600 X115.562 Y100.288
G1 F900 X125.209 Y109.936 E20.05555
G0 F3600 X124.911 Y110.203
