;FLAVOR:Marlin
;TIME:7893
;Filament used: 5.11906m
;Layer height: 0.2
;MINX:119.913
;MINY:76.413
;MINZ:0.2
;MAXX:177.087
;MAXY:133.587
;MAXZ:20
;Generated with Cura_SteamEngine 4.6.2
M104 S210
M105
M109 S210
M82 ;absolute extrusion mode
; -- START GCODE --
G21                     ;set units to millimetres
G90                     ;set to absolute positioning
M106 S0                 ;set fan speed to zero (turned off)
G28 X0 Y0               ;move to the X/Y origin (Home)
G28 Z0                  ;move to the Z origin (Home)
G1 Z15.0 F1200          ;move Z to position 15.0 mm
G92 E0                  ;zero the extruded length
G1 E20 F200             ;extrude 20mm of feed stock
G92 E0                  ;zero the extruded length again
G1 F7200                ;set feedrate to 120 mm/s
; -- end of START GCODE --
G92 E0
G92 E0
;LAYER_COUNT:100
;LAYER:0
M107
G0 F3600 X150.087 Y76.866 Z0.2
;TYPE:SKIRT
G1 F900 X150.824 Y76.908 E0.02455
G1 X151.859 Y77.023 E0.05919
G1 X152.553 Y77.115 E0.08247
G1 X153.273 Y77.22 E0.10667
G1 X154.247 Y77.414 E0.13971
G1 X154.952 Y77.57 E0.16372
G1 X155.683 Y77.744 E0.18871
G1 X156.625 Y78.019 E0.22135
G1 X157.332 Y78.241 E0.246
G1 X158.017 Y78.467 E0.26999
G1 X158.95 Y78.832 E0.30331
G1 X159.655 Y79.123 E0.32868
G1 X160.29 Y79.396 E0.35167
G1 X161.197 Y79.845 E0.38533
G1 X161.856 Y80.187 E0.41002
G1 X162.477 Y80.522 E0.43349
G1 X163.366 Y81.063 E0.46811
G1 X163.946 Y81.433 E0.49099
G1 X164.561 Y81.835 E0.51542
G1 X165.361 Y82.423 E0.54845
G1 X165.978 Y82.896 E0.5743
G1 X166.514 Y83.318 E0.59699
G1 X167.234 Y83.95 E0.62886
G1 X167.812 Y84.479 E0.65492
G1 X168.344 Y84.982 E0.67927
G1 X169.028 Y85.697 E0.71218
G1 X169.52 Y86.233 E0.73638
G1 X170.01 Y86.783 E0.76088
G1 X170.623 Y87.547 E0.79346
G1 X171.099 Y88.166 E0.81943
G1 X171.519 Y88.731 E0.84285
G1 X172.058 Y89.538 E0.87512
G1 X172.46 Y90.168 E0.89998
G1 X172.849 Y90.799 E0.92463
G1 X173.312 Y91.644 E0.95668
G1 X173.611 Y92.217 E0.97818
G1 X173.966 Y92.922 E1.00443
G1 X174.311 Y93.702 E1.0328
G1 X174.66 Y94.534 E1.06281
G1 X174.92 Y95.18 E1.08597
G1 X175.294 Y96.281 E1.12464
G1 X175.474 Y96.85 E1.14449
G1 X175.694 Y97.585 E1.17001
G1 X175.935 Y98.571 E1.20377
G1 X176.091 Y99.277 E1.22782
G1 X176.238 Y99.974 E1.25151
G1 X176.385 Y100.946 E1.28421
G1 X176.48 Y101.66 E1.30816
G1 X176.569 Y102.417 E1.33351
G1 X176.634 Y103.425 E1.36711
G1 X176.666 Y104.134 E1.39072
G1 X176.688 Y104.876 E1.41541
G1 X176.665 Y105.863 E1.44824
G1 X176.636 Y106.542 E1.47085
G1 X176.592 Y107.321 E1.4968
G1 X176.478 Y108.351 E1.53126
G1 X176.386 Y109.052 E1.55478
G1 X176.278 Y109.787 E1.57949
G1 X176.1 Y110.683 E1.60987
G1 X175.975 Y111.248 E1.62912
G1 X175.852 Y111.759 E1.6466
G1 X175.535 Y112.925 E1.68679
G1 X175.301 Y113.7 E1.71371
G1 X175.029 Y114.526 E1.74264
G1 X174.688 Y115.405 E1.774
G1 X174.386 Y116.134 E1.80024
G1 X174.105 Y116.787 E1.82389
G1 X173.659 Y117.689 E1.85735
G1 X173.321 Y118.34 E1.88175
G1 X172.98 Y118.974 E1.90569
G1 X172.445 Y119.854 E1.93995
G1 X172.086 Y120.419 E1.96221
G1 X171.665 Y121.062 E1.98778
G1 X171.071 Y121.87 E2.02113
G1 X170.63 Y122.445 E2.04523
G1 X170.184 Y123.013 E2.06925
G1 X169.534 Y123.752 E2.10199
G1 X169.02 Y124.313 E2.12729
G1 X168.518 Y124.844 E2.1516
G1 X167.811 Y125.521 E2.18415
G1 X167.245 Y126.041 E2.20972
G1 X166.721 Y126.507 E2.23304
G1 X165.941 Y127.132 E2.26628
G1 X165.027 Y127.821 E2.30435
G1 X164.547 Y128.159 E2.32388
G1 X163.402 Y128.914 E2.3695
G1 X162.702 Y129.348 E2.39689
G1 X161.859 Y129.811 E2.42888
G1 X161.247 Y130.13 E2.45183
G1 X160.574 Y130.467 E2.47687
G1 X159.8 Y130.811 E2.50504
G1 X158.965 Y131.159 E2.53513
G1 X158.32 Y131.42 E2.55827
G1 X157.22 Y131.794 E2.59691
G1 X156.65 Y131.974 E2.61679
G1 X155.911 Y132.195 E2.64245
G1 X154.925 Y132.435 E2.6762
G1 X154.226 Y132.59 E2.70001
G1 X153.526 Y132.738 E2.72381
G1 X152.554 Y132.885 E2.75651
G1 X151.823 Y132.982 E2.78103
G1 X151.082 Y133.069 E2.80585
G1 X150.075 Y133.134 E2.83941
G1 X149.366 Y133.166 E2.86302
G1 X148.622 Y133.188 E2.88777
G1 X147.613 Y133.164 E2.92134
G1 X146.913 Y133.134 E2.94465
G1 X146.176 Y133.092 E2.9692
G1 X145.141 Y132.977 E3.00383
G1 X144.447 Y132.885 E3.02712
G1 X143.727 Y132.78 E3.05132
G1 X142.753 Y132.586 E3.08435
G1 X142.044 Y132.428 E3.10851
G1 X141.318 Y132.257 E3.13332
G1 X140.375 Y131.981 E3.166
G1 X139.665 Y131.758 E3.19075
G1 X138.983 Y131.533 E3.21464
G1 X138.05 Y131.168 E3.24796
G1 X137.327 Y130.87 E3.27397
G1 X136.708 Y130.603 E3.29639
G1 X135.803 Y130.155 E3.32998
G1 X135.144 Y129.813 E3.35467
G1 X134.523 Y129.478 E3.37814
G1 X133.634 Y128.937 E3.41275
G1 X133.054 Y128.567 E3.43563
G1 X132.439 Y128.165 E3.46007
G1 X131.63 Y127.571 E3.49345
G1 X131.014 Y127.098 E3.51928
G1 X130.484 Y126.681 E3.54171
G1 X129.748 Y126.034 E3.57431
G1 X129.187 Y125.52 E3.59961
G1 X128.656 Y125.018 E3.62392
G1 X127.972 Y124.303 E3.65683
G1 X127.453 Y123.738 E3.68234
G1 X126.988 Y123.215 E3.70562
G1 X126.371 Y122.445 E3.73844
G1 X125.928 Y121.868 E3.76263
G1 X125.492 Y121.283 E3.7869
G1 X125.054 Y120.628 E3.81311
G1 X124.523 Y119.802 E3.84577
G1 X124.173 Y119.238 E3.86785
G1 X123.657 Y118.296 E3.90357
G1 X123.359 Y117.724 E3.92502
G1 X123.033 Y117.074 E3.94921
G1 X122.689 Y116.3 E3.97738
G1 X122.34 Y115.463 E4.00754
G1 X122.08 Y114.819 E4.03064
G1 X121.706 Y113.72 E4.06925
G1 X121.526 Y113.15 E4.08913
G1 X121.297 Y112.386 E4.11566
G1 X121.079 Y111.49 E4.14633
G1 X120.91 Y110.731 E4.17219
G1 X120.768 Y110.05 E4.19533
G1 X120.633 Y109.172 E4.22488
G1 X120.514 Y108.28 E4.25481
G1 X120.434 Y107.61 E4.27725
G1 X120.365 Y106.558 E4.31231
G1 X120.334 Y105.862 E4.33549
G1 X120.312 Y105.124 E4.36004
G1 X120.336 Y104.113 E4.39368
G1 X120.366 Y103.413 E4.41698
G1 X120.408 Y102.676 E4.44153
G1 X120.523 Y101.641 E4.47617
G1 X120.615 Y100.947 E4.49945
G1 X120.722 Y100.213 E4.52413
G1 X120.9 Y99.317 E4.55451
G1 X121.025 Y98.752 E4.57376
G1 X121.148 Y98.241 E4.59124
G1 X121.465 Y97.075 E4.63143
G1 X121.707 Y96.277 E4.65916
G1 X121.971 Y95.474 E4.68728
G1 X122.314 Y94.592 E4.71875
G1 X122.589 Y93.928 E4.74265
G1 X122.941 Y93.126 E4.77179
G1 X123.616 Y91.783 E4.82178
G1 X123.875 Y91.294 E4.84018
G1 X124.73 Y89.873 E4.89534
G1 X125.346 Y88.923 E4.933
G1 X125.915 Y88.15 E4.96492
G1 X126.268 Y87.689 E4.98424
G1 X126.743 Y87.087 E5.00974
G1 X127.351 Y86.382 E5.0407
G1 X127.878 Y85.799 E5.06684
G1 X128.471 Y85.168 E5.09564
G1 X129.216 Y84.454 E5.12996
G1 X129.777 Y83.94 E5.15527
G1 X130.28 Y83.492 E5.17767
G1 X131.059 Y82.868 E5.21087
G1 X131.973 Y82.179 E5.24894
G1 X132.453 Y81.841 E5.26847
G1 X133.598 Y81.085 E5.3141
G1 X134.299 Y80.651 E5.34152
G1 X135.141 Y80.189 E5.37347
G1 X135.753 Y79.87 E5.39642
G1 X136.426 Y79.533 E5.42146
G1 X137.2 Y79.189 E5.44963
G1 X138.035 Y78.841 E5.47972
G1 X138.68 Y78.58 E5.50286
G1 X139.78 Y78.206 E5.5415
G1 X140.355 Y78.025 E5.56155
G1 X141.088 Y77.805 E5.587
G1 X142.075 Y77.565 E5.62079
G1 X142.774 Y77.41 E5.6446
G1 X143.474 Y77.262 E5.6684
G1 X144.446 Y77.115 E5.7011
G1 X145.177 Y77.018 E5.72562
G1 X145.918 Y76.931 E5.75044
G1 X146.925 Y76.866 E5.784
G1 X147.634 Y76.834 E5.80761
G1 X148.378 Y76.812 E5.83236
G1 X149.387 Y76.836 E5.86593
G1 X150.087 Y76.866 E5.88923
G0 F3600 X150.104 Y76.466
G1 F900 X150.847 Y76.509 E5.91399
G1 X151.906 Y76.626 E5.94942
G1 X152.605 Y76.718 E5.97287
G1 X153.331 Y76.824 E5.99728
G1 X154.327 Y77.022 E6.03105
G1 X155.039 Y77.18 E6.05531
G1 X155.775 Y77.355 E6.08047
G1 X156.739 Y77.635 E6.11386
G1 X157.452 Y77.86 E6.13873
G1 X158.143 Y78.088 E6.16293
G1 X159.098 Y78.46 E6.19702
G1 X159.808 Y78.753 E6.22256
G1 X160.449 Y79.029 E6.24577
G1 X161.376 Y79.487 E6.28016
G1 X162.041 Y79.832 E6.30508
G1 X162.667 Y80.17 E6.32874
G1 X163.575 Y80.722 E6.36409
G1 X164.161 Y81.095 E6.38719
G1 X164.78 Y81.5 E6.41179
G1 X165.6 Y82.102 E6.44563
G1 X166.222 Y82.579 E6.4717
G1 X166.762 Y83.003 E6.49453
G1 X167.5 Y83.652 E6.52722
G1 X168.082 Y84.184 E6.55345
G1 X168.619 Y84.691 E6.57801
G1 X169.319 Y85.422 E6.61167
G1 X169.815 Y85.962 E6.63606
G1 X170.309 Y86.518 E6.6608
G1 X170.936 Y87.298 E6.69408
G1 X171.416 Y87.922 E6.72027
G1 X171.84 Y88.492 E6.7439
G1 X172.391 Y89.318 E6.77692
G1 X172.797 Y89.953 E6.80199
G1 X173.19 Y90.589 E6.82685
G1 X173.664 Y91.453 E6.85963
G1 X173.966 Y92.032 E6.88135
G1 X174.323 Y92.742 E6.90778
G1 X174.678 Y93.542 E6.93689
G1 X175.029 Y94.38 E6.96711
G1 X175.291 Y95.03 E6.99042
G1 X175.674 Y96.154 E7.02992
G1 X175.855 Y96.73 E7.05
G1 X176.078 Y97.47 E7.0757
G1 X176.324 Y98.479 E7.11025
G1 X176.482 Y99.191 E7.1345
G1 X176.629 Y99.891 E7.15829
G1 X176.781 Y100.889 E7.19187
G1 X176.877 Y101.608 E7.216
G1 X176.967 Y102.371 E7.24155
G1 X177.033 Y103.402 E7.27591
G1 X177.065 Y104.116 E7.29968
G1 X177.087 Y104.865 E7.32461
G1 X177.065 Y105.874 E7.35817
G1 X177.036 Y106.559 E7.38098
G1 X176.991 Y107.344 E7.40713
G1 X176.875 Y108.397 E7.44236
G1 X176.782 Y109.105 E7.46611
G1 X176.674 Y109.845 E7.49099
G1 X176.492 Y110.763 E7.52211
G1 X176.353 Y111.389 E7.54344
G1 X175.921 Y113.029 E7.59985
G1 X175.683 Y113.816 E7.6272
G1 X175.409 Y114.651 E7.65642
G1 X175.06 Y115.552 E7.68856
G1 X174.755 Y116.287 E7.71503
G1 X174.472 Y116.945 E7.73885
G1 X174.017 Y117.868 E7.77308
G1 X173.676 Y118.524 E7.79767
G1 X173.332 Y119.164 E7.82184
G1 X172.786 Y120.064 E7.85685
G1 X172.423 Y120.634 E7.87932
G1 X171.999 Y121.281 E7.90505
G1 X171.391 Y122.109 E7.93922
G1 X170.947 Y122.688 E7.96349
G1 X170.498 Y123.26 E7.98767
G1 X169.832 Y124.018 E8.02123
G1 X169.315 Y124.583 E8.04671
G1 X168.809 Y125.119 E8.07122
G1 X168.086 Y125.811 E8.10451
G1 X167.515 Y126.336 E8.13031
G1 X166.986 Y126.806 E8.15384
G1 X166.189 Y127.445 E8.18782
G1 X165.266 Y128.142 E8.22629
G1 X164.776 Y128.487 E8.24622
G1 X163.622 Y129.248 E8.2922
G1 X162.913 Y129.688 E8.31995
G1 X162.05 Y130.163 E8.35271
G1 X161.432 Y130.485 E8.37589
G1 X160.753 Y130.825 E8.40115
G1 X159.96 Y131.177 E8.43001
G1 X159.119 Y131.529 E8.46033
G1 X158.469 Y131.791 E8.48364
G1 X157.347 Y132.173 E8.52306
G1 X156.77 Y132.355 E8.54318
G1 X156.025 Y132.578 E8.56905
G1 X155.017 Y132.824 E8.60356
G1 X154.313 Y132.981 E8.62755
G1 X153.609 Y133.129 E8.65147
G1 X152.611 Y133.281 E8.68505
G1 X151.876 Y133.378 E8.70971
G1 X151.129 Y133.466 E8.73473
G1 X150.098 Y133.533 E8.76909
G1 X149.384 Y133.565 E8.79286
G1 X148.634 Y133.587 E8.81782
G1 X147.601 Y133.563 E8.85218
G1 X146.896 Y133.534 E8.87565
G1 X146.153 Y133.491 E8.90041
G1 X145.094 Y133.374 E8.93584
G1 X144.395 Y133.282 E8.95929
G1 X143.669 Y133.176 E8.9837
G1 X142.673 Y132.978 E9.01747
G1 X141.957 Y132.819 E9.04187
G1 X141.226 Y132.646 E9.06685
G1 X140.261 Y132.365 E9.10028
G1 X139.544 Y132.139 E9.12528
G1 X138.857 Y131.912 E9.14935
G1 X137.902 Y131.54 E9.18344
G1 X137.174 Y131.239 E9.20964
G1 X136.549 Y130.97 E9.23227
G1 X135.624 Y130.513 E9.26658
G1 X134.959 Y130.168 E9.2915
G1 X134.333 Y129.83 E9.31516
G1 X133.425 Y129.278 E9.35051
G1 X132.839 Y128.905 E9.37361
G1 X132.22 Y128.5 E9.39821
G1 X131.391 Y127.891 E9.43243
G1 X130.771 Y127.415 E9.45842
G1 X130.237 Y126.995 E9.48102
G1 X129.482 Y126.333 E9.51442
G1 X128.917 Y125.815 E9.53991
G1 X128.381 Y125.309 E9.56443
G1 X127.681 Y124.578 E9.59809
G1 X127.158 Y124.008 E9.62382
G1 X126.689 Y123.481 E9.64729
G1 X126.058 Y122.693 E9.68086
G1 X125.611 Y122.111 E9.70527
G1 X125.171 Y121.522 E9.72972
G1 X124.72 Y120.848 E9.7567
G1 X124.186 Y120.018 E9.78952
G1 X123.833 Y119.448 E9.81182
G1 X123.305 Y118.487 E9.84829
G1 X123.004 Y117.909 E9.86997
G1 X122.675 Y117.253 E9.89437
G1 X122.323 Y116.46 E9.92323
G1 X121.971 Y115.617 E9.95362
G1 X121.709 Y114.969 E9.97686
G1 X121.327 Y113.847 E10.01628
G1 X121.145 Y113.27 E10.03641
G1 X120.914 Y112.5 E10.06315
G1 X120.69 Y111.583 E10.09454
G1 X120.52 Y110.817 E10.12064
G1 X120.377 Y110.131 E10.14395
G1 X120.237 Y109.23 E10.17427
G1 X120.118 Y108.333 E10.20437
G1 X120.037 Y107.657 E10.22701
G1 X119.966 Y106.582 E10.26285
G1 X119.934 Y105.879 E10.28625
G1 X119.913 Y105.135 E10.31101
G1 X119.937 Y104.101 E10.34541
G1 X119.966 Y103.396 E10.36888
G1 X120.009 Y102.653 E10.39363
G1 X120.126 Y101.594 E10.42907
G1 X120.218 Y100.895 E10.45252
G1 X120.326 Y100.155 E10.47739
G1 X120.508 Y99.237 E10.50852
G1 X120.647 Y98.611 E10.52984
G1 X121.079 Y96.971 E10.58625
G1 X121.325 Y96.16 E10.61444
G1 X121.591 Y95.349 E10.64283
G1 X121.942 Y94.445 E10.67508
G1 X122.219 Y93.775 E10.69919
G1 X122.575 Y92.965 E10.72862
G1 X122.797 Y92.508 E10.74552
G1 X123.259 Y91.601 E10.77938
G1 X123.522 Y91.106 E10.79802
G1 X124.387 Y89.666 E10.85389
G1 X125.012 Y88.704 E10.89205
G1 X125.594 Y87.911 E10.92476
G1 X125.951 Y87.445 E10.94429
G1 X126.429 Y86.839 E10.96996
G1 X127.052 Y86.116 E11.0017
G1 X127.582 Y85.531 E11.02796
G1 X128.179 Y84.894 E11.05699
G1 X128.941 Y84.163 E11.09211
G1 X129.507 Y83.645 E11.11763
G1 X130.014 Y83.193 E11.14022
G1 X130.811 Y82.555 E11.17418
G1 X131.734 Y81.858 E11.21265
G1 X132.224 Y81.513 E11.23258
G1 X133.378 Y80.751 E11.27858
G1 X134.089 Y80.311 E11.30639
G1 X134.95 Y79.837 E11.33908
G1 X135.568 Y79.515 E11.36225
G1 X136.247 Y79.175 E11.38751
G1 X137.04 Y78.823 E11.41637
G1 X137.881 Y78.471 E11.44669
G1 X138.531 Y78.209 E11.47
G1 X139.653 Y77.827 E11.50942
G1 X140.235 Y77.643 E11.52972
G1 X140.974 Y77.422 E11.55538
G1 X141.983 Y77.176 E11.58992
G1 X142.687 Y77.019 E11.61391
G1 X143.391 Y76.871 E11.63784
G1 X144.389 Y76.719 E11.67141
G1 X145.124 Y76.622 E11.69607
G1 X145.871 Y76.534 E11.72109
G1 X146.902 Y76.467 E11.75545
G1 X147.616 Y76.435 E11.77922
G1 X148.366 Y76.413 E11.80418
G1 X149.399 Y76.437 E11.83855
G1 X150.104 Y76.466 E11.86201
;MESH:paraguasV6.stl
G0 F3600 X150.686 Y79.43
G0 X150.631 Y80.713
G0 X152.717 Y81.069
G0 X152.734 Y80.971
;TYPE:WALL-INNER
G1 F900 X154.821 Y81.434 E11.93312
G1 X156.833 Y82.069 E12.00329
G1 X158.82 Y82.891 E12.07481
G1 X160.698 Y83.868 E12.14522
G1 X162.494 Y85.013 E12.21606
G1 X164.187 Y86.311 E12.28701
G1 X165.754 Y87.746 E12.35769
G1 X167.189 Y89.313 E12.42836
G1 X168.49 Y91.009 E12.49945
G1 X169.632 Y92.801 E12.57013
G1 X170.572 Y94.609 E12.6379
G1 X171.43 Y96.662 E12.71191
G1 X172.068 Y98.684 E12.78243
G1 X172.528 Y100.763 E12.85325
G1 X172.806 Y102.865 E12.92377
G1 X172.899 Y104.999 E12.99482
G1 X172.806 Y107.132 E13.06583
G1 X172.528 Y109.237 E13.13645
G1 X172.125 Y111.06 E13.19855
G1 X171.799 Y112.166 E13.2369
G1 X171.432 Y113.333 E13.27758
G1 X170.609 Y115.32 E13.34912
G1 X169.632 Y117.198 E13.41953
G1 X168.49 Y118.991 E13.49023
G1 X167.189 Y120.687 E13.56132
G1 X165.754 Y122.254 E13.632
G1 X164.187 Y123.689 E13.70267
G1 X162.769 Y124.776 E13.76209
G1 X161.937 Y125.343 E13.79558
G1 X160.698 Y126.132 E13.84443
G1 X158.891 Y127.072 E13.91218
G1 X156.838 Y127.93 E13.98619
G1 X154.821 Y128.566 E14.05653
G1 X152.734 Y129.029 E14.12763
G1 X150.632 Y129.306 E14.19815
G1 X148.5 Y129.399 E14.26913
G1 X146.368 Y129.306 E14.3401
G1 X144.266 Y129.029 E14.41062
G1 X142.179 Y128.566 E14.48172
G1 X140.167 Y127.931 E14.5519
G1 X138.18 Y127.109 E14.62342
G1 X136.3 Y126.131 E14.6939
G1 X134.506 Y124.987 E14.76467
G1 X132.813 Y123.689 E14.83562
G1 X131.246 Y122.254 E14.90629
G1 X129.811 Y120.687 E14.97696
G1 X128.553 Y119.047 E15.04571
G1 X127.365 Y117.193 E15.11895
G1 X126.428 Y115.391 E15.1865
G1 X125.57 Y113.338 E15.26051
G1 X124.933 Y111.319 E15.33092
G1 X124.48 Y109.276 E15.40052
G1 X124.195 Y107.139 E15.47223
G1 X124.101 Y104.999 E15.54347
G1 X124.194 Y102.865 E15.61452
G1 X124.472 Y100.763 E15.68504
G1 X124.875 Y98.94 E15.74714
G1 X125.199 Y97.841 E15.78525
G1 X125.574 Y96.652 E15.82671
G1 X126.325 Y94.838 E15.89201
G1 X127.196 Y93.132 E15.95572
G1 X127.428 Y92.707 E15.97183
G1 X128.512 Y91.007 E16.03889
G1 X129.709 Y89.448 E16.10426
G1 X130.448 Y88.618 E16.14122
G1 X131.246 Y87.746 E16.18054
G1 X132.813 Y86.311 E16.25121
G1 X134.231 Y85.224 E16.31063
G1 X135.063 Y84.657 E16.34412
G1 X136.302 Y83.868 E16.39298
G1 X138.109 Y82.928 E16.46072
G1 X140.162 Y82.07 E16.53473
G1 X142.179 Y81.434 E16.60507
G1 X144.266 Y80.971 E16.67617
G1 X146.368 Y80.694 E16.74669
G1 X148.5 Y80.601 E16.81767
G1 X150.632 Y80.694 E16.88865
G1 X152.734 Y80.971 E16.95916
G0 F3600 X152.806 Y80.577
;TYPE:WALL-OUTER
G1 F900 X154.912 Y81.044 E17.03091
G1 X156.98 Y81.696 E17.10303
G1 X158.988 Y82.527 E17.17531
